X: 4491
T: Bonny Breast Knot
R: reel
M: 4/4
K: Gmajor
|:dc|B2 G2 G2 AB|cBAG F2 D2|G2 B2 G2 B2|G2 B2 d3 c|
B2 G2 G2 AB|cBAG F2 D2|G2 B2 d3 c|B2 G2 G2:|
|:Bc|d3 e d3 e|dcBA G2 G2|A2 B2 cBcd|e2 A2 A2 Bc|
d3 e d3 e|dcBA G2 G2|A2 A2 D2 EF|G2 G2 G2:|

